resources/icons/polygon.svg

<svg xmlns="http://www.w3.org/2000/svg" viewBox="0 0 17 16" fill="none">
    <path d="M12.2105 5.13762C11.9158 4.9692 11.5368 4.9692 11.2 5.13762L8.8421 6.5271L7.24211 7.41131L4.92632 8.80078C4.63158 8.9692 4.25263 8.9692 3.91579 8.80078L2.10526 7.70604C1.81053 7.53762 1.6 7.20078 1.6 6.82183V4.71657C1.6 4.37973 1.76842 4.04289 2.10526 3.83236L3.91579 2.77973C4.21053 2.61131 4.58947 2.61131 4.92632 2.77973L6.73684 3.87447C7.03158 4.04289 7.24211 4.37973 7.24211 4.75868V6.14815L8.8421 5.22183V3.79025C8.8421 3.45341 8.67368 3.11657 8.33684 2.90604L4.96842 0.927097C4.67368 0.758676 4.29474 0.758676 3.95789 0.927097L0.505263 2.94815C0.168421 3.11657 0 3.45341 0 3.79025V7.74815C0 8.08499 0.168421 8.42183 0.505263 8.63236L3.91579 10.6113C4.21053 10.7797 4.58947 10.7797 4.92632 10.6113L7.24211 9.26394L8.8421 8.33762L11.1579 6.99026C11.4526 6.82183 11.8316 6.82183 12.1684 6.99026L13.9789 8.04289C14.2737 8.21131 14.4842 8.54815 14.4842 8.9271V11.0324C14.4842 11.3692 14.3158 11.706 13.9789 11.9166L12.2105 12.9692C11.9158 13.1376 11.5368 13.1376 11.2 12.9692L9.38947 11.9166C9.09474 11.7481 8.88421 11.4113 8.88421 11.0324V9.68499L7.28421 10.6113V12.0008C7.28421 12.3376 7.45263 12.6745 7.78947 12.885L11.2 14.8639C11.4947 15.0324 11.8737 15.0324 12.2105 14.8639L15.6211 12.885C15.9158 12.7166 16.1263 12.3797 16.1263 12.0008V8.00078C16.1263 7.66394 15.9579 7.3271 15.6211 7.11657L12.2105 5.13762Z" fill="currentColor"/>
</svg>

<svg xmlns="http://www.w3.org/2000/svg" viewBox="0 0 17 16" fill="none"><path d="M12.21 5.138c-.294-.169-.673-.169-1.01 0l-2.358 1.39-1.6.883-2.316 1.39c-.294.168-.673.168-1.01 0l-1.81-1.095a1.026 1.026 0 0 1-.506-.884V4.717c0-.337.168-.674.505-.885l1.81-1.052c.296-.169.674-.169 1.011 0l1.81 1.094c.296.169.506.506.506.885v1.39l1.6-.927V3.79c0-.337-.168-.673-.505-.884L4.968.927c-.294-.168-.673-.168-1.01 0L.505 2.948A.926.926 0 0 0 0 3.79v3.958c0 .337.168.674.505.884l3.41 1.98c.296.168.674.168 1.011 0l2.316-1.348 1.6-.926 2.316-1.348c.295-.168.674-.168 1.01 0l1.81 1.053c.296.168.506.505.506.884v2.105c0 .337-.168.674-.505.885l-1.768 1.052c-.295.169-.674.169-1.011 0l-1.81-1.052a1.026 1.026 0 0 1-.506-.885V9.685l-1.6.926v1.39c0 .337.169.674.505.884l3.411 1.979c.295.168.674.168 1.01 0l3.411-1.979c.295-.168.505-.505.505-.884V8c0-.337-.168-.674-.505-.884l-3.41-1.98Z" fill="currentColor"/></svg>
